X: 1
T: Hunting the Hare
R: march, polka
Z: 1997 by John Chambers <jc@trillian.mit.edu>
M: 2/4
L: 1/8
K: D
|: "D"D>F Ad | "A7"cA "(G)"BG | "D"F>D FA | "A7"E2- E2\
|  "D"D>F Ad | "A7"cA "(G)"BG | "D"F>D "A7"FA | "D"d2- d2 :|
|: "D"f>g af | "G"ge "D"fd | "A7"e>f ge | ae cA \
|  "D"f>g af | "G"ge "D"fd | "A7"ce Ac | "D"d2- d2 :|
